X:204
T:Hughie Shortie's
M:4/4
L:1/8
K:G
D2 |: G2 Bd cAFD|GABd g2 fg|ecAc dBGB|cAAB AFDF|
G2 Bd cAFD|GABd g2 fg|ecAc dBGB|1 cAGF G2 D2:|2 cAGF G2 Bd||
g2 dg bgag|ec (3ccc efge|dB (3BBB dBGB|cAAB AF D2|
g2 dg bgag|ec (3ccc efge|dB (3BBB dBGB|cAGF G2 Bd|
g2 dg bgag|ecea g2 fe|dB (3BBB dBGB|cAAB AFDB,|
C2 EC B,DdB|cdef g2 fg|ecAc dBGB|dAGF G2 |>|
